X:1
T: Lady Beatrice Hamilton
C:William Marshall
R:Reel
Q: 232
K:F
M:4/4
L:1/8
|:FA cA fA cA|FA cA dc BA|FA cA fA cA|Gg bg fe dc|
FA cA fA cA|FA cA dc BA|FA cA fA cA|Gg bg fe dc|
Ff ef df cf|cf af dc BA|Gg ^fg dg Bg|dg bg fe dc|
Ff ef df cf|cf af dc BA|dB Bd cA Ac|Gg bg fe dc:|
